X: 11688
T: Eimhin's
R: waltz
M: 3/4
K: Eminor
{c}AJB2 G E2E2|e3Bd2{ef}ed|JB3 G {A}E2E2|{G}A3 Bc4|JB3 G{A}E2E2
e2{a} (3edB dz Be|{B}d2F/A/EJF3D|E6z2|JB3 G{A}E2E2|ez {a}(3edB d2 {a}ed|
JB3 G {A}E2E2|{F}A3Bc2B2|JB3 G {A}E2E2|e2{a}(3edB dzBe|d2F/A/EJF3E/D/|E6z2|
z4z3g/{a}g/|f.Bz g/{a}g/f.B zJa-|a3g/e/~f2B2|e8-|!>!e3z3z2|
{c}AJB3-B2 J(3BAG|A8-|A3z3z2|{gb}gf.Bz{gb}gf.Bz|za4Jagf|Be4-e3-|e4z3~e-|
eJB6A/B/|A<G A6-|A4z3G|{A}FDE6-|EzJB4GE|{A}E3e3Bd-|d (3e/f/e/ dJB3G{A}E-|
EEzFA2JBJc-|c2JBJB4G|{A}EEze2{a}e/d/Bd-|dBe{e}d3 F/A/E/JF/|
F2E/D/ E3-E2|E2z2JB3G|{A}E2E2e3B|{e}d2{ef}edJB3G|{A}E2EzFA2JB|c2B2JB3G|
{A}E2E2e3B|d2Be{B}d2E/A/ E|JF2zDJE4-|E8-|E2z{gb}gf.Bz{gb}g|f.Bz2{c'}a3Jg|Jf2B2e4-|
e8|z4{A}B4-|B2JB/{cB}A/ G2A3-|A6z2|z3g/{a}g/f.Bz g/{a}g/|f.Bz2a4|JagfBe4-|e8|
z2e2JB4-|B2 (3A/B/A/ GJA4-|A6z2|zG{A}FDE4-|E6z2|zG{A}FDE4-|E6z2|zG{A}FDE4|

